udata_front/theme/gouvfr/templates/svg/arrow-right.svg

<svg fill="none" height="14" viewBox="0 0 14 14" width="14" xmlns="http://www.w3.org/2000/svg"><path d="m6.75.15625-.21875.21875c-.15625.15625-.15625.375 0 .53125l5.56255 5.5625h-11.7188c-.21875 0-.375.1875-.375.375v.3125c0 .21875.15625.375.375.375h11.7188l-5.56255 5.59375c-.15625.1562-.15625.375 0 .5312l.21875.2188c.15625.1562.375.1562.53125 0l6.59375-6.59375c.1562-.15625.1562-.375 0-.53125l-6.59375-6.59375c-.15625-.15625-.375-.15625-.53125 0z" fill="#0883f2"/></svg>

<svg aria-hidden="true" width="14" height="14" viewBox="0 0 14 14" fill="none" xmlns="http://www.w3.org/2000/svg">
<path d="M6.75 0.15625L6.53125 0.375C6.375 0.53125 6.375 0.75 6.53125 0.90625L12.0938 6.46875H0.375C0.15625 6.46875 0 6.65625 0 6.84375V7.15625C0 7.375 0.15625 7.53125 0.375 7.53125H12.0938L6.53125 13.125C6.375 13.2812 6.375 13.5 6.53125 13.6562L6.75 13.875C6.90625 14.0312 7.125 14.0312 7.28125 13.875L13.875 7.28125C14.0312 7.125 14.0312 6.90625 13.875 6.75L7.28125 0.15625C7.125 0 6.90625 0 6.75 0.15625Z" fill="#0883F2"/>
</svg>
